icons/svg/untappd.svg

﻿<?xml version="1.0" encoding="utf-8"?>
<!DOCTYPE svg PUBLIC "-//W3C//DTD SVG 1.1//EN" "http://www.w3.org/Graphics/SVG/1.1/DTD/svg11.dtd">
<svg xmlns="http://www.w3.org/2000/svg" xmlns:xlink="http://www.w3.org/1999/xlink" version="1.1" baseProfile="full" width="24" height="24" viewBox="0 0 24.00 24.00" enable-background="new 0 0 24.00 24.00" xml:space="preserve">
	<path fill="#000000" fill-opacity="1" stroke-linejoin="round" d="M 14.4132,4.00383C 14.4132,4.00383 14.9365,4.38739 14.9653,4.70835C 14.9742,4.81462 14.7342,4.85104 14.6788,4.93111C 14.6234,5.01056 14.699,5.15134 14.6464,5.20629C 14.5947,5.26081 14.488,5.26378 14.4094,5.41138C 14.3315,5.55982 12.0665,10.0934 11.7346,10.6323C 11.5915,11.0316 11.4746,12.4634 11.3662,12.6583C 11.2571,12.8536 6.34039,19.8422 6.15915,20.053C 5.66845,20.6264 4.31329,20.3035 3.28206,19.5617C 2.3013,18.8572 1.74033,17.7033 2.11176,17.1615C 2.26893,16.9319 7.14714,9.91815 7.29345,9.74884C 7.4402,9.58017 8.7468,8.98319 9.0733,8.71293C 9.46709,8.21755 12.9597,4.54478 13.0721,4.42082C 13.1848,4.29709 13.1511,4.19572 13.1848,4.1282C 13.2189,4.06026 13.3763,4.08327 13.4327,4.00383C 13.4889,3.92524 13.3878,3.7114 13.4889,3.67754C 13.5903,3.6439 13.9626,3.66626 14.4132,4.00383 Z M 10.8473,4.43966L 11.7365,5.36951L 10.2627,6.9368L 9.46236,5.37143C 9.38292,5.22319 9.27579,5.22149 9.2234,5.16654C 9.17079,5.11202 9.24491,4.9704 9.18932,4.89074C 9.13331,4.81087 8.89733,4.83494 8.89925,4.72824C 8.90138,4.62091 9.04791,4.27694 9.51795,3.96472C 9.51795,3.96472 10.0557,3.59777 10.3686,3.67912C 10.4719,3.70596 10.4263,3.94513 10.4831,4.02393C 10.5402,4.10273 10.6983,4.07887 10.7323,4.14639C 10.7668,4.21412 10.7338,4.31613 10.8473,4.43966 Z M 21.9171,17.1493C 22.2943,17.8053 21.5339,18.978 20.4878,19.7038C 19.4924,20.394 18.2134,20.5374 17.8256,20.0041C 17.662,19.7783 12.6697,12.8153 12.5594,12.6204C 12.4482,12.4253 12.3225,10.9901 12.1771,10.5905L 12.15,10.5456C 12.4514,9.99124 13.0748,8.76747 13.7318,7.46662C 14.296,8.06465 14.7547,8.55897 14.8842,8.71933C 15.213,8.98832 16.5273,9.57891 16.6753,9.7478C 16.8227,9.91648 21.7784,16.9074 21.9171,17.1493 Z "/>
</svg>

<svg xmlns="http://www.w3.org/2000/svg" version="1.1" baseProfile="full" width="24" height="24" viewBox="0 0 24.00 24.00" xml:space="preserve"><path fill="#000" fill-opacity="1" stroke-linejoin="round" d="M14.413 4.004s.524.383.552.704c.01.107-.23.143-.286.223-.057.08.02.22-.034.276-.05.055-.158.058-.237.205-.08.15-2.344 4.683-2.675 5.222-.143.4-.26 1.83-.37 2.026-.108.196-5.025 7.184-5.206 7.395-.492.573-1.847.25-2.878-.49-.98-.706-1.542-1.86-1.17-2.4.157-.23 5.035-7.245 5.18-7.414.148-.17 1.455-.767 1.78-1.037.395-.495 3.888-4.168 4-4.292.113-.123.08-.224.113-.292.034-.068.19-.045.248-.124.056-.08-.045-.293.056-.326.1-.034.473-.012.923.326zm-3.566.436l.89.93-1.474 1.567-.8-1.566c-.08-.147-.187-.15-.24-.203-.052-.055.022-.197-.034-.276-.057-.08-.293-.055-.29-.162 0-.107.148-.45.618-.763 0 0 .538-.367.85-.286.104.026.058.265.115.344.057.08.215.055.25.122.034.068 0 .17.114.294zm11.07 12.71c.377.655-.383 1.828-1.43 2.554-.995.69-2.274.833-2.66.3-.165-.226-5.157-7.19-5.268-7.384-.112-.195-.238-1.63-.383-2.03l-.027-.044c.3-.555.925-1.78 1.582-3.08.564.6 1.023 1.093 1.152 1.253.33.268 1.643.86 1.79 1.028.15.168 5.104 7.16 5.243 7.4z"/></svg>
